images/icons/v2/save-solid-24.svg

<svg height="24" viewBox="0 0 24 24" width="24" xmlns="http://www.w3.org/2000/svg"><path d="m19.618 10a.75.75 0 0 1 .516 1.294l-8.134 7.706-8.134-7.706a.75.75 0 0 1 .516-1.294h4.118v-8h7v8zm-15.618 12h16v-1.5h-16z"/></svg>

<svg xmlns="http://www.w3.org/2000/svg" width="24" height="24" viewBox="0 0 24 24"><title>save-solid-24</title><path d="M19.618,10a.75.75,0,0,1,.516,1.294L12,19,3.866,11.294A.75.75,0,0,1,4.382,10H8.5V2h7v8ZM4,22H20V20.5H4Z"/></svg>
